X:25
T:Hyacinthe's Reel
C:François Champs
Z:Gwen, 2019-04-14
R:Reel
M:2/2
K:G
|: G2BG DGBd | c2cB cdef | d2de fdge | fdcA BGFA |
   G2BG DGBd | c2cB cdef | defd gefe |1 dcAc BGFA :|2 dcAc BGBd |
|: g2fg accc | =fec=f eABc | f2df accc | ABcA BGBd |
   g2fg accc | =fec=f eABc | eaag ageg |1 fdcA BGBd :|2 fdcA BGFA |

